X:1
T:James Gibb editions
T:Psalm 132 (Becker) - Schütz
%%score [ ( 1 2 ) ( 3 4 ) ]
L:1/8
Q:1/4=98
M:2/2
K:C
V:1 treble nm="Soprano Alto"
V:2 treble 
V:3 bass nm="Tenor Bass"
V:4 bass 
V:1
"^Cornelius Becker\n(1561-1604)""^Psalm 132, SWV 237""^Heinrich Schütz\n(1585-1672)" A4 | %1
w: ~In|
w: er|
 c2 B2 A4 | E4 G2 F2 | E4 G4 | A2 B2 c4 |[M:2/2] c4 B2 A2 | (d3 c B2) A2 | ^G4 A8 :| E4 G2 A2 | %9
w: Gna- den, Herr,|wollst ein- g'denk|sein des|G'salb- ten dein,|Da- vids und|sei\- * * nes|Lei- den;||
w: hat ein ho-|hen Schwur ge-|tan, der|se- lig Mann,|ge- lobt mit|ei\- * * nem|Ei- de||
 B4 d4 | c2 A2 G4 | G4 c2 d2 | e4 f4 | e2 d2 c4 | G4 F2 E2 | (A3 B c2) (BA) | (^G2 A4 G2) | A8 |] %18
w: ||der Is- ra-|el ihm|hat er- wählt,|führt sie in|sei\- * * nem *|G'lei\- * *|te.|
w: |||||||||
V:2
 E4 | E2 E2 E4 | C4 D2 D2 | B,4 E4 | ^F2 G2 G4 |[M:2/2] G4 G2 E2 | (A3 G F2) E2 | E4 E8 :| %8
w: ||||||||
 C4 E2 E2 | G4 G4 | E2 D2 D4 | E4 E2 G2 | G4 A4 | G2 G2 G4 | E4 D2 B,2 | (E2 ^F^G A2) =F2 | E8 | %17
w: dem star- ken|Gott, Herrn|Ze- ba- oth,|||||||
 E8 |] %18
w: |
V:3
 C4 | A,2 B,2 C4 | A,4 B,2 A,2 | ^G,4 B,4 | D2 D2 E4 |[M:2/2] E4 D2 C2 | (F3 E D2) C2 | B,4 A,8 :| %8
w: ||||||||
 A,4 B,2 C2 | D4 B,4 | G,2 ^F,2 G,4 | B,4 A,2 B,2 | %12
w: ||||
 C4"^2. Ich will nicht gehn zur Hütten ein\ndes Hauses mein,\nwill mich zu Bett nicht legen,\nmein Augen sollen schlafen nit,\nmein Augenlid\nsoll keiner Ruh nicht pflegen,\nbis ich die Stadt\nerfunden hab\nzur Wohnung sein,\ndem Herren mein,\nder Jakob mächtig segnet." C4 | %13
w: |
 C2 B,2 C4 | C4 A,2 G,2 | C4 E2 (D2- | D2 C2 B,4) | ^C8 |] %18
w: ||sei- nem G'lei\-||te.|
V:4
 A,4 | A,2 ^G,2 A,4 | A,4 G,2 D,2 | E,4 E,4 | D,2 G,2 C,4 |[M:2/2] C,4 G,2 A,2 | D,6 A,,2 | %7
 E,4 A,,8 :| A,,4 E,2 A,2 | G,4 G,4 | C,2 D,2 G,4 | E,4 A,2 G,2 | C,4 F,4 | C,2 G,2 C,4 | %14
 C,4 D,2 E,2 | A,,6 D,2 | E,8 | A,,8 |] %18

